icons/flag.svg

<svg width="24" height="24" viewBox="0 0 24 24" fill="none" xmlns="http://www.w3.org/2000/svg">
<path fill-rule="evenodd" clip-rule="evenodd" d="M3 3C3 2.44772 3.44772 2 4 2H12C12.2652 2 12.5196 2.10536 12.7071 2.29289L14.4142 4H20C20.5523 4 21 4.44772 21 5V16C21 16.5523 20.5523 17 20 17H14C13.7348 17 13.4804 16.8946 13.2929 16.7071L11.5858 15H5V21C5 21.5523 4.55228 22 4 22C3.44772 22 3 21.5523 3 21V3ZM5 13H12C12.2652 13 12.5196 13.1054 12.7071 13.2929L14.4142 15H19V6H14C13.7348 6 13.4804 5.89464 13.2929 5.70711L11.5858 4H5V13Z" fill="black"/>
</svg>

<svg
  width="24"
  height="24"
  viewBox="0 0 24 24"
  xmlns="http://www.w3.org/2000/svg"
>
  <path
    fill-rule="evenodd"
    clip-rule="evenodd"
    d="M3 3a1 1 0 0 1 1-1h8a1 1 0 0 1 .707.293L14.414 4H20a1 1 0 0 1 1 1v11a1 1 0 0 1-1 1h-6a1 1 0 0 1-.707-.293L11.586 15H5v6a1 1 0 1 1-2 0V3zm2 10h7a1 1 0 0 1 .707.293L14.414 15H19V6h-5a1 1 0 0 1-.707-.293L11.586 4H5v9z"
  />
</svg>
